X:1
T:Magnificat quarti toni - Morales
T:#
%%score [ 1 2 3 4 ]
L:1/8
Q:1/4=140
M:4/2
K:C
V:1 treble nm="S" snm="S"
V:2 treble nm="A" snm="A"
V:3 treble-8 nm="T" snm="T"
V:4 treble nm="B" snm="B"
V:1
 z12 | z22 ||[M:2/2][K:treble][Q:1/4=108][Q:1/4=108][Q:1/4=108][Q:1/4=108] (A4 G4) | (G4 A4- | %4
w: ||Et *|ex\- *|
 A2) B2 (c4- | c2 BA B2 G2- | G2 FE FG A2- | A2 G2 c4 | B2 A4 ^G2) | A4 z4 | z8 | A4 G2 A2 | %12
w: * ul- ta\-|||||vit||spi- ri- tus|
 (B2 A3 ^G G2) | A4 z4 | z4 z2 E2 | A6 G2 | A2 E2 G2 A2 | (F3 G AB c2 | A2 c3 B A2- | %19
w: me\- * * *|us|in|De- o|sa- lu- ta- ri|me\- * * * *||
 A2 ^G2) A2 c2- | c2 B2 (A2 G2- | G)F (E4 D2) | E8- | E8 || %24
w: * * o, sa\-|* lu- ta\- *|* ri me\- *|o.||
[Q:1/4=140][Q:1/4=140][Q:1/4=140][Q:1/4=140] z24 | z24 || %26
w: ||
[M:2/2][Q:1/4=108][Q:1/4=108][Q:1/4=108][Q:1/4=108] z8 | (A4 G4) | (G4 A4) | (B2 A3 G G2 | %30
w: |Qui\- *|a *|fe\- * * *|
 F2 E4 D2) | E8 | z2 B4 B2 | (c3 B AG A2- | AG E2 F4) |[M:2/2] E2 c2 c2 A2 | (c3 B A2 F2 | %37
w: |cit|mi- hi|ma\- * * * *||gna, qui po- tens|est, * * *|
 G2 E4 D2 | E8) | z2 c2 (c2 A2 | B2 A3 ^G) G2 | A4 z4 | A4 A4 | G8 | A8 | B4 G4- | G4 E4 | %47
w: ||qui po\- *|* * * tens|est,|et san-|ctum|no-|men e\-|* ius,|
 z2 A2 A2 A2 | (G3 A Bc d2- | d)c (c4 B2) | c2 G2 A2 B2 | (c3 B A)G (A2- | A2 ^G^F) G4- | G8 || %54
w: et san- ctum|no\- * * * *|* men e\- *|ius, et san- ctum|no\- * * men e\-|* * * ius.||
[Q:1/4=140][Q:1/4=140][Q:1/4=140][Q:1/4=140] z26 | z18 || %56
w: ||
[M:2/2][Q:1/4=108][Q:1/4=108][Q:1/4=108][Q:1/4=108] A4 B2 G2 | A2 B2 c2 A2 | c6 B2 | B4 (d3 c | %60
w: Fe- cit po-|ten- ti- am in|bra- chi-|o su\- *|
 B2 A4 GF | G3 A Bc B2- | BA A4 ^G2) |[M:2/2] A4 z2 c2 | B2 G2 B3 c | d4 G4 | A2 c3 B (A2 | %67
w: |||o, in|bra- chi- o su-|o, in|bra- chi- o su\-|
 G2 A4 ^G2) | A2 c2 c2 G2 | (A2 B2) (c3 B/A/) | G4 z2 G2- | G2 E2 (G3 A | Bc B3) A (A2- | %73
w: |o. Dis- per- sit|su\- * per\- * *|bos men\-|* te cor\- *|* * * dis su\-|
 A2 ^G2) A2 (c2- | c2 B4 A2- | A^G G2) A4 | z8 | A4 G4 | A4 B4 | G2 E2 A4- | A2 G2 A2 c2 | %81
w: * * i, su\-||* * * i,||men- te|cor- dis|su- i, men\-|* te cor- dis|
 (A2 c2 B2 A2- | A2 ^G^F) G4- | G8 ||[M:2/2][Q:1/4=140][Q:1/4=140][Q:1/4=140][Q:1/4=140] z24 | %85
w: su\- * * *|* * * i.|||
 z22 ||[M:2/2][Q:1/4=108][Q:1/4=108][Q:1/4=108][Q:1/4=108] z8 | z8 | z8 | z8 | z8 | z8 | z8 | z8 | %94
w: |||||||||
[M:2/2] z8 | z8 | z8 | z8 | z8 | z8 | z8 | z8 |[M:2/2] z8 | z8 | z8 | z8 | z8 | z8 | z8 | z8 | z8 | %111
w: |||||||||||||||||
 z8 |[Q:1/4=140][Q:1/4=140][Q:1/4=140][Q:1/4=140] z24 | z24 || %114
w: |||
[M:2/2][Q:1/4=108][Q:1/4=108][Q:1/4=108][Q:1/4=108] z8 | z8 | z8 | z8 | (A4 G4) | (G4 A4) | %120
w: ||||Si\- *|cut *|
 A4 A2 A2 | A4 z4 |[M:2/2] z8 | A8 | G4 A2 (c2 | B2 A3 G G2) | A8- | A8 | z4 A4- | A4 A4 | A4 z4 | %131
w: lo- cu- tus|est||ad|pa- tres no\-||stros,||A\-|* bra-|ham|
 z2 A2 A3 A | A2 G2 A4 | B4 G4- | G4 F4 | E4 z2 A2 | A3 A A2 G2 | A4 B4 | G8- | %139
w: et se- mi-|ni e- ius|in sae\-|* cu-|la, et|se- mi- ni e-|ius in|sae\-|
[Q:1/4=106] G4[Q:1/4=104] E4 |[Q:1/4=101] E8- |[Q:1/4=97] E8 |[Q:1/4=95] E8 || %143
w: * cu-|la.|||
[M:2/2][Q:1/4=140][Q:1/4=140][Q:1/4=140][Q:1/4=140] z22 | z20 || %145
w: ||
[M:2/2][Q:1/4=108]"^Gloria patri \net filio\net spiritui sancto."[Q:1/4=108][Q:1/4=108][Q:1/4=108] A8- | %146
w: Si\-|
 A8 | G8 | G8 | (A3 G E2 F2- | F2 E4 D2 | E3 F G2) (EF | GA B3 c d2- | d2 cB c2) (A2- | %154
w: |cut|e-|rat * * *||* * * in *||* * * * prin\-|
 AG E2) F2 F2 | E4 z2 c2 | c2 c2 (d3 c | BA A4 ^G2) | A4 z2 A2 | B2 B2 (c2 A2- | A2 ^G^F) G4 | %161
w: * * * ci- pi-|o et|nunc et sem\- *||per, et|nunc et sem\- *|* * * per|
 z2 B2 B2 d2- | dc A4 c2- | cB (G2 A3 G | F2 E2 F4 | E4 z2 (c2- | c2 BA B2) G2 | A2 D2 d3 c | %168
w: et in sae\-|* cu- la sae\-|* cu- lo\- * *|* rum, a-|men, sae\-|* * * * cu-|lo- rum a\- *|
 BA B3 G c2- | c2 B2 A4- | A2 ^G^F G3 A | B2 c4 B2) | c4[Q:1/4=106] G4 | %173
w: ||||men, sae-|
[Q:1/4=103] A2[Q:1/4=102] B2[Q:1/4=100] c2[Q:1/4=98] (A2- | %174
w: cu- lo- rum, a\-|
[Q:1/4=97] A2[Q:1/4=96] ^G[Q:1/4=95]^F)[Q:1/4=93] G4- |[Q:1/4=92] G8 |] %176
w: * * * men.||
V:2
 z12 | z22 ||[M:2/2][K:treble] z8 | (E4 D4) | (D4 E3) C | (D2 E3 D B,2 | D3 C DE F2- | FE E4 C2 | %8
w: |||Et *|ex\- * ul-|ta\- * * *|||
 F4 E4- | E4 z2 E2 | D4 E4 | F4 E4- | E8 | E4 z2 B,2 | E3 E D2 C2- | C2 D2 E4 | C3 D EF) E2- | %17
w: * vit|* spi-|ri- tus|me- us||* in|De- o sa- lu\-|* ta- ri|me\- * * * o,|
 E2 D2 F2 E2 | F2 E4 F2 | D2 (E3 D E2 | F2 G2 E4 | D2 CB, A,4) | B,8- | B,8 || z24 | z24 || %26
w: * in De- o|sa- lu- ta-|ri me\- * *|||o.||||
[M:2/2] (E4 D4) | (D4 E4) | (E4 F3 E | D2 C2 B,3 C | DB, C4 B,A,) | B,4 z2 E2- | E2 E2 D4 | %33
w: Qui\- *|a *|fe\- * *|||cit mi\-|* hi ma-|
 C4 D2 (F2- | FE E4) D2 |[M:2/2] E4 z2 C2 | C2 A,2 C2 D2 | B,2 (C3 B, A,2- | A,2 ^G,^F,) G,2 (C2- | %39
w: gna, qui po\-|* * * tens|est, mi-|hi ma- gna, qui|po~- ~tens * *|* * * est, qui|
 CD E2) (A,2 A2) | (GFED) E4 | z2 E2 E2 E2 | D2 C2 (F4 | E3 D/C/ B,2 E2 | F2 E4) D2 | z2 E2 E2 E2 | %46
w: * * * ~po\- *|~tens * * * est,|et san- ctum|no- men e\-||* * ius,|et san- ctum|
 (DCB,A, B,3 C) | D2 (E4 D2) | E4 D4 | B,2 C2 D4 | C6 (B,2 | A,4 C4) | B,8- | B,8 || z26 | z18 || %56
w: no\- * * * * *|men e\- *|ius, et|san- ctum no-|men e\-||ius.||||
[M:2/2] z4 E4 | F2 D2 E2 F2 | E2 C2 D4 | E4 F4- | F4 E4 | (E3 F GE G2- | GFED E4- | %63
w: Fe-|cit po- ten- ti-|am in bra-|chi- o|* su-|o, * * * *||
[M:2/2] E2 F2 E2 C2 | (E3 F G2) E2 | F4 E4) | (C8 | E8) | z2 E2 E4 | E2 E2 E4 | E8 | z8 | E8 | %73
w: * in bra- chi-|o * * su\-||o.||Dis- per-|sit su- per-|bos||men-|
 D4 E4- | E4 F4 | (E4 C4) | D4 z2 D2- | D2 C2 (D2 E2- | E2 F2 G2 E2- | EFGE F4) | E4 (C4 | F8) | %82
w: te cor\-|* dis|su\- *|i, men\-|* te cor\- *|||dis su\-||
 E8- | E8 ||[M:2/2] z24 | z22 ||[M:2/2] E4 E2 E2 | D4 E4- | E2 A,2 C2 C2 | (B,CDE F2 E2- | %90
w: i.||||E- su- ri-|en- tes|* im- ple- vit|bo\- * * * * *|
 E2 D2 C3 B,/A,/) | B,2 (E3 C) F2 | E2 (D3 CA,B, | CD E4 D2- | DC A,2 B,4) | A,4 z2 A,2 | C6 D2 | %97
w: |nis, im\- * ple-|vit bo\- * * *|||nis et|di- vi-|
 E2 C2 F4 | E2 (F3 E) (E2- | E2 DC D4) | E8 | z2 E2 D2 B,2 | (C2 B,A, G,2) (C2- | C2 B,2) C4 | %104
w: tes di- mi-|sit in\- * a\-||nes,|di- mi- sit|in\- * * * a\-|* * nes,|
 B,2 C4 D2- | D2 D2 (D2 B,2- | B,2 C3 D E2 | D2 C3 B, E2- | E2 D2 G3 F) | D2 F4 E2 | D2 C2 D4 | %111
w: di- mi- sit|* in- a\- *||||nes, di- mi-|sit in- a-|
 E8 | z24 | z24 ||[M:2/2] z8 | z8 | (E4 D4) | (D4 E4) | E4 E2 E2 | E4 z4 | z8 | E8 | %122
w: nes.|||||Si\- *|cut *|lo- cu- tus|est||ad|
[M:2/2] D4 E2 (G2 | F2 E3 D D2) | E8- | E8 | z4 E4- | E4 E4 | E4 z4 | z2 E2 E3 E | E2 D2 E4 | %131
w: pa- tres no\-||stros,||A\-|* bra-|ham|et se- mi-|ni e- ius|
 F4 D4- | D4 C4 | B,4 z2 E2 | E3 E E2 D2 | E4 F4 | D8- | D4 B,4 | B,4 z2 D2 | (E3 D B,2 C2- | %140
w: in sae\-|* cu-|la, et|se- mi- ni e-|ius in|sae\-|* cu-|~la, in|sae\- * * *|
 C2 B,2 A,2) C2 | B,8- | B,8 ||[M:2/2] z22 | z20 ||[M:2/2] A,4 A,2 (D2- | D2 C2 F4 | E3 D CB, C2- | %148
w: * * * cu-|la.||||Si- cut e\-|||
 C2 B,A,) B,4 | z2 A,2 C2 (D2- | DA, C4 B,A, | B,4 E4- | E2 DC D2 B,2 | E3 D E2 F2- | FE E4) D2 | %155
w: * * * rat|in~ prin- ci\-|||||* * * pi-|
 E2 (C3 B, CD) | E2 E2 (F3 E | D3 C) B,4 | z4 D4- | D4 C4 | D4 E4- | E4 D4 | F3 F F2 F2 | C6 C2 | %164
w: o et * * *|nunc et sem\- *|* * per,|et|* nunc|et sem\-|* per|et in sae- cu-|la sae-|
 D2 (E3 D D2) | E2 (C3 D E2- | EDEF G2) E2 | F4 F4 | (G3 F ED E2- | E2 DC D4) | E4 z2 (E2- | %171
w: cu- lo\- * *|rum, sae\- * *|* * * * * cu-|lo- rum,|a\- * * * *||men, a\-|
 E2 DC D4) | C2 E3 D (C2- | C2 B,2) A,2 C2 | B,8- | B,8 |] %176
w: |men, sae- cu- lo\-|* * rum, a-|men.||
V:3
"^Magnificat quarti toni""^Cristóbal de Morales\n(1500-53)" A2 G2 A2 A2 A4 | %1
w: Ma- gni\- * fi- cat|
w: |
 A2 A2 G2 A2 B2 A2 G2 G2 F2 E4 ||[M:2/2][K:treble-8] z8 | z8 | z4 (A4 | G4) (G4 | A4) A2 (d2 | %7
w: a- ni- ma me- a * Do- mi\- * num.|||Et|* ex\-|* ul- ta\-|
w: ||||||
 c2 B2 ABcA | d3 c B4) | A2 c2 B2 c2 | G2 (d3 ^c c2) | d4 z2 A2 | G2 A2 B4 | A2 c2 c2 d2 | %14
w: ||vit spi- ri- tus|me\- * * *|us, spi-|ri- tus me-|us, spi- ri- tus|
w: |||||||
 (c2 B4 AG | A4 B4) | A4 z2 A2 | d6 c2 | d2 A2 c2 d2 | B4 (A3 B | c2) d2 c2 B2- | B2 (c3 B) (A2- | %22
w: me\- * * *||us in|De- o|sa- lu- ta- ri|me- o, *|* sa- lu- ta\-|* ri * me\-|
w: ||||||||
 A2 ^G^F) G4- | G8 || A2 G2 A2 A8 G2 A2 B2 A4 | A8 G2 A2 B2 A2 G2 F2 E4 ||[M:2/2][K:treble-8] z8 | %27
w: * * * o.||Qui- a * respexit~humilitatem~an- cil- lae su- æ:|ecce~enim~ex~hoc~beatam * * * * * * *||
w: |||me~dicent~omnes~ge- ne- ra- ti\- * o\- * nes.||
 z8 | z8 | z8 | (A8 | G8) | (G8 | A8) | A4 A4 |[M:2/2][K:treble-8] A4 A4 | A8 | G4 A4 | (B6 A2) | %39
w: |||Qui\-||a||fe- cit|mi- hi|ma-|gna, qui|po\- *|
w: ||||||||||||
 (A3 B c2 d2- | d2 c2 B4) | A8 | z8 | z8 | A4 A4 | G8- | G8 | A8 | B8 | G8 | E8- | E8 | E8 | E8 || %54
w: tens * * *||~est,|||et san-|ctum||no-|\-men|e-|~ius.||||
w: |||||||||||||||
 A2 G2 A2 A8 G2 A2 B2 A2 A4 | A2 G2 A2 B2 A2 G2 F2 E4 ||[M:2/2][K:treble-8] z8 | z8 | (A4 G4) | %59
w: Et mi\- * sericordia~eius~a~progenie in pro- ge- ni- es|ti- men- ti- bus * e\- * um.|||Fe\- *|
w: |||||
 (G4 A4) | (d3 c B2) (c2- | c2 BA G4- | G2 A2) B4 |[M:2/2][K:treble-8] A2 d2 c2 A2 | B4 (G4 | %65
w: cit *|po\- * * ten\-||* * ti-|am in bra- chi-|o su\-|
w: ||||||
 A2 B4 c2- | cBAG A2 c2- | c2 BA B4) | A4 z2 c2 | c2 G2 (A3 B) | (c2 BA) B4 | z2 G4 E2 | G6 A2 | %73
w: |||o. Dis-|per- sit su\- *|per\- * * bos|men- te|cor- dis|
w: ||||||||
 (B4 A4 | G4 d3 c | B4) A2 c2 | B2 A3 ^G (G2 | A4 B2 c2- | c2 d2) B2 G2 | B3 c d4 | B4 A4 | %81
w: su\- *||* i, men-|te cor- dis su\-||* * i, men-|te cor- dis|su- i,|
w: ||||||||
 c2 A2 d4 | B2 (c4 BA) | B8 || A2 G2 A2 A8 G2 A2 B2 A4 | A2 A2 G2 A2 B2 A2 G2 G2 F2 E4 || %86
w: men- te cor-|dis su\- * *|i.|De- po\- * suit~poten- tes de se- de|et ex- al- ta- vit * hu- mi\- * les.|
w: |||||
[M:2/2][K:treble-8]"^T" z8 | z8 | z8 | z8 | A4 A2 A2 | G4 A4- | A2 D2 F2 F2 | (E3 F GA B2- | %94
w: ||||E- su- ri-|en- tes|* im- ple- vit|bo\- * * * *|
w: ||||||||
 BA A4 ^G2) | A8 | z8 | z2 A2 A4- | A2 A2 A4- | A4 A4 | ^G4 A4 | B8 | G4 E4- | E4 z2 A2 | (G4 A4 | %105
w: |nis||et di\-|* vi- tes|* di-|mi- sit|in-|a- ~nes,|* et|di\- *|
w: |||||||||||
 B8) | G4 E4 | z2 A2 G4 | (A4 B3 A | BG c4 B2) | (A2 G2 A4) | B8 | A2 G2 A2 A8 G2 A2 B2 A4 | %113
w: |vi- tes|di- mi-|sit in\- *||a\- * *|nes.|Su- sce\- * pit~Israel~pu- er- um su- um|
w: ||||||||
 A8 G2 A2 B2 A2 G2 F2 E4 ||[M:2/2][K:treble-8] z4 e4 | e2 e2 d2 d2 | (c2 B4 AG | A2 B2 c2 G2 | %118
w: recordatus~miseri- cor- di- æ * su\- * æ.|Si-|cut lo- cu- tus|est * * *||
w: |||||
 A2 c4 BA | B4 A2) c2 | d2 e2 (f2 d2- | dc c2 B2 c2 |[M:2/2][K:treble-8] G2 d3 c c2 | d2 cB A4) | %124
w: |* * ad|pa- tres no\- *||||
w: ||||||
 B4 z2 A2 | G2 A2 B4 | A4 c4- | c2 c2 c3 c | B2 c2 A2 (d2- | d2 cB cBAG | A4) B2 c2 | (A2 d3 cBA | %132
w: stros, ad|pa- tres no-|stros, A\-|* bra- ham et|se- mi- ni e\-||* ius in|sae\- * * * *|
w: ||||||||
 B2) B2 A4 | z2 d2 e2 B2 | c4 (A2 B2) | c2 A4 (d2- | dcBA B2) B2 | A2 d2 d3 d | d2 (e3 d B2 | %139
w: * cu- la,|et se- mi-|ni e\- *|ius in sae\-|* * * * * cu-|la, et se- mi-|ni e\- * *|
w: |||||||
 c2 BA G4) | A2 B2 (c2 A2- | A2) (^G^F) G4- | G8 || A2 G2 A2 A2 A2 G2 A2 B2 A2 A4 | %144
w: |ius in sae\- *|* cu\- * la.||Glo- ri\- * a Pa- tri, et Fi- li- o,|
w: |||||
 A2 A2 G2 A2 B2 A2 G2 F2 E4 ||[M:2/2][K:treble-8] z8 | z8 | z8 | z8 | (A8- | A8 | G8) | (G8 | A8) | %154
w: et Spi- ri- tu- i * San\- * cto:|||||Si\-|||cut||
w: ||||||||||
 A4 A4 | A2 A2 A2 A2 | A8 | z8 | A8 | G4 A4 | B8- | B8 | A8 | z4 A4- | A2 A2 A2 A2 | A8 | z8 | A8 | %168
w: e- rat|in prin- ci- pi-|o||et|nunc et|sem\-||per|et|* in sae- cu-|la||sae-|
w: ||||||||||||||
 G8 | A8 | B8 | G8 | E8- | E8 | E8 | E8 |] %176
w: cu-|lo-|rum,|a-|~men.||||
w: ||||||||
V:4
 z12 | z22 ||[M:2/2][K:bass] z8 | z8 | z8 | z4 (E,4 | D,4) (D,4 | E,4) F,4 | D,4 (E,4 | %9
w: |||||Et|* ex\-|* ul-|ta- vit|
 A,,2) A,2 G,2 A,2 | B,4 A,4 | z8 | z4 E,4 | A,6 G,2 | A,2 E,2 G,2 A,2 | F,4 E,4 | z8 | z8 | z8 | %19
w: * spi- ri- tus|me- us||in|De- o|sa- lu- ta- ri|me- o,||||
 z2 E,2 A,4- | A,2 G,2 A,2 E,2 | G,2 A,2 F,4 | E,8- | E,8 || z24 | z24 ||[M:2/2] z8 | z8 | %28
w: in De\-|* o sa- lu-|ta- ri me-|o.||||||
 (E,4 D,4) | (D,4 E,4) | (D,2 C,2 F,4) | E,6 E,2 | (E,3 D,/C,/) B,,4 | A,,4 D,4- | D,2 C,2 D,4 | %35
w: Qui\- *|a *|fe\- * *|cit mi-|hi * * ma-|gna, qui|* po- tens|
[M:2/2] A,,8 | z2 F,2 F,2 D,2 | E,4 F,4 | (E,6 A,,2) | (A,,2 A,4 F,2 | G,2 A,2 E,4) | A,,8 | z8 | %43
w: est,|mi- hi ma-|gna, qui|po\- *|tens * *||~est,||
 z2 E,2 E,2 E,2 | D,2 C,2 F,4 | E,8 | z2 E,2 E,2 E,2 | D,2 C,2 F,4 | E,4 z4 | z4 G,,4 | %50
w: et san- ctum|no- men e~-|~ius,|et san- ctum|no- men e~-|ius,|et|
 C,3 B,, A,,2 G,,2 | A,,4 E,4- | E,8 | E,8 || z26 | z18 ||[M:2/2] z8 | z8 | z8 | (E,4 D,4) | %60
w: san- ctum no- men|e~- ~ius.||||||||Fe\- *|
 (D,4 E,4- | E,2) E,2 E,2 E,2 | E,8 |[M:2/2] z8 | E,4 E,4 | D,4 E,4 | F,8 | E,8 | z8 | z8 | %70
w: cit~ *|* po- ten- ti-|am||in bra-|chi- o|su-|~o.|||
 E,4 E,4 | E,2 E,2 E,4 | E,4 z4 | z8 | E,4 D,4 | E,4 F,4 | D,4 B,,4 | z8 | z4 E,4- | E,4 D,4 | %80
w: Dis- per-|sit su- per-|bos||men- te|cor- dis|su- i,||men\-|* te|
 E,4 F,4- | F,4 D,4 | E,8- | E,8 ||[M:2/2] z24 | z22 ||[M:2/2]"^B" z8 | z8 | A,4 A,2 A,2 | %89
w: cor- dis|* su-|i.||||||E~- su- ri-|
 G,4 A,4- | A,2 D,2 F,2 F,2 | E,4 A,,2 D,2 | C,2 B,,2 (D,4 | A,,B,,C,D, E,F, G,2- | G,2 F,2) E,4 | %95
w: en- tes|* im- ple- vit|bo- nis, im-|ple- vit bo\-||* * nis|
 z2 A,,2 C,2 D,2 | E,2 C,2 F,4 | E,2 (F,3 E, D,2) | (C,2 D,4 C,2 | F,8) | E,4 z2 A,2 | %101
w: et di- vi-|tes di- mi-|sit in\- * *|a\- * *||nes, di~-|
 G,2 E,2 G,4 | C,2 (E,3 D, C,B,, | A,,2 G,,2 A,,4) | E,4 F,4 | G,8 | E,4 C,4 | (F,4 E,4 | %108
w: mi- sit in-|a\- * * * *||nes, di-|mi-|sit in-|a\- *|
 F,4 E,3 F, | G,2 A,4 G,2 | F,2 E,2 F,4) | E,8 | z24 | z24 ||[M:2/2] A,4 A,2 A,2 | %115
w: |||nes.|||Sic- ut lo-|
 G,2 G,2 (F,3 G, | A,2 G,4 F,E, | F,2 G,2 C,4 | A,,4 E,4- | E,4) z2 A,,2 | D,2 C,2 D,4 | %121
w: cu- tus est *||||* ad|pa- tres no-|
 A,,2 A,2 G,2 A,2 |[M:2/2] B,4 A,2 E,2 | (D,2 E,2) F,4 | E,4 A,,4 | z4 E,4 | F,4 A,3 A, | %127
w: stros, ad pa- tres|no- stros, ad|pa\- * tres|no- stros,|A-|bra- ham et|
 A,2 A,2 A,4 | E,4 F,2 (D,E, | F,G, A,3 G,F,E, | F,4) E,2 C,2 | D,8 | z4 z2 A,2 | G,3 F, E,2 E,2 | %134
w: se- mi- ni|e~- ius in *||* sae- cu-|la,|et|se- mi- ni e-|
 C,2 C,2 D,4 | A,,4 D,4 | z8 | D,4 G,4- | G,2 E,2 E,2 G,2 | C,2 (E,3 D, C,B,,) | (A,,2 G,,2) A,,4 | %141
w: ius in sae-|cu- la,||et se\-|* mi- ni e-|ius in * * *|sae\- * cu-|
 E,8- | E,8 ||[M:2/2] z22 | z20 ||[M:2/2] z8 | z8 | z8 | z8 | A,,4 A,,2 (D,2- | D,2 C,2 F,4 | %151
w: la.||||||||Si- cut e\-||
 E,3 D, C,B,, C,2- | C,2 B,,A,, B,,4) | A,,4 z2 D,2- | D,2 C,2 D,2 D,2 | A,,8 | z4 D,4 | D,4 E,4 | %158
w: ||rat in|* prin- ci- pi-|o|et|nunc et|
 (F,3 E, D,3 C, | B,,4) A,,4 | z4 E,4- | E,2 E,2 G,2 G,2 | D,4 F,4- | F,2 E,2 (F,3 E, | %164
w: sem\- * * *|* per|et|* in sae- cu-|la sae\-|* cu- lo\- *|
 D,2 C,2 D,4 | A,,8 | E,8 | D,8 | E,8 | F,4 F,4 | E,8 | z4 G,,4 | A,,4 C,3 B,, | A,,2) G,,2 A,,4 | %174
w: * rum, a-|\-men,|sae-|cu-|lo-|rum, a-|men,|sae-|cu- lo\- *|* rum, a-|
 E,8- | E,8 |] %176
w: men.||

